austria/municipalities/31704.svg

<svg xmlns="http://www.w3.org/2000/svg" width="708" height="819" viewBox="10 30 708 819"><path style="fill:none;stroke:#231f20;stroke-width:.17399999;stroke-linecap:butt;stroke-linejoin:bevel;stroke-miterlimit:2.61299992" d="M501.395 746.118c-.078.337-.142.738-.236 1.417a15.3 15.3 0 0 0-.135 1.987c.008.791.178 1.484.17 1.674.701-.058 2.843 1.117 3.53 1.973.435.542 1.44 1.941 1.581 2.487 1.381-.47 2.359-1.023 7.988-1.672 1.319-.151 12.903.752 12.987 1.446.183-.91.394-4.198.439-5.946.038-1.517.11-3.083.01-3.881-.04-.273-.034-.413-.057-.557-.05-.32-.14-1.749-.713-3.757-.42-1.47-1.119-3.109-1.379-3.669a52.305 52.305 0 0 0-2.796-4.291c-.411-.56-.809-1.115-1.209-1.583-.712-.833-1.319-1.516-1.623-1.871-1.013-1.181-5.355-5.236-6.462-5.529-1.274 1.375-3.758 3.166-4.714 3.717-.362.209-1.237.711-1.607.876.111 1.089-.146 2.622-.427 4.081-.279 1.453-.68 3.496-1.431 4.826-.193.454-.509 1.193-.586 1.324-.241.408-.339.62-.697 1.376-.184.388-1.296 1.932-1.971 3.452-.384.863-.634 1.848-.662 2.12z" transform="matrix(25.06022 0 0 -25.06022 -12527.35 18988.884)"/><path style="fill:#c9252b;fill-rule:evenodd;stroke:#231f20;stroke-width:.80500001;stroke-linecap:butt;stroke-linejoin:bevel;stroke-miterlimit:2.61299992" d="m506.188 738.003 18.516-.085c-.218-.571-1.372-2.335-2.662-3.949-1.087-1.36-2.11-2.762-2.572-3.263-.971-1.055-4.821-4.932-5.834-5.276-1.183 1.288-3.461 2.937-4.344 3.448-.334.194-1.07.588-1.412.74.091 1.031-.201 2.547-.506 3.926-.304 1.379-.657 3.434-1.186 4.459zM526.724 745.947l-24.352.059c-.077.283-.138.467-.231 1.095a14.118 14.118 0 0 0-.146 1.84c-.001.733.149 1.377.14 1.553.649-.046 2.621 1.064 3.248 1.864.398.507 1.314 1.815 1.439 2.322 1.283-.421 2.194-.925 7.414-1.467 1.223-.127 11.997.566 12.068 1.21.178-.842.351-3.622.411-5.241.051-1.406.052-2.543.009-3.235z" transform="matrix(25.06022 0 0 -25.06022 -12527.35 18988.884)"/><path style="fill:#fff;fill-rule:evenodd;stroke:#231f20;stroke-width:.80500001;stroke-linecap:butt;stroke-linejoin:bevel;stroke-miterlimit:2.61299992" d="M524.69 737.893c.332.542 1.009 2.149 1.4 3.688.53 2.087.612 3.491.628 3.842.006.134.006.269.007.534l-24.338.089c.034-.241.305-1.223.713-2.081.719-1.51 1.817-3.138 1.987-3.535.327-.765.512-1.12.695-1.579.124-.312.299-.625.408-.854l18.5-.104z" transform="matrix(25.06022 0 0 -25.06022 -12527.35 18988.884)"/><path style="fill:#231f20;fill-rule:evenodd;stroke:#231f20;stroke-width:.403;stroke-linecap:butt;stroke-linejoin:miter;stroke-miterlimit:2.61299992" d="m513.175 747.511.318-.006.988.049.033 3.779 1.706.008-.005-13.976c-.014-.683-.1-1.715-.402-2.497-.93-2.409-2.352-2.766-3.079-2.97-.171-.048-2.27-.412-2.152-.19.248.102 1.622 1.002 1.721 1.139.442.611 1.33 1.844 1.143 4.505l-.271 10.159z" transform="matrix(25.06022 0 0 -25.06022 -12527.35 18988.884)"/><path style="fill:#fff;fill-rule:evenodd;stroke:#fff;stroke-width:.17399999;stroke-linecap:butt;stroke-linejoin:miter;stroke-miterlimit:2.61299992" d="M515.331 750.615a.205.205 0 0 0 0-.409.204.204 0 0 0 0 .409zm-.009-1.849a.204.204 0 0 0 0-.409.204.204 0 0 0 0 .409z" transform="matrix(25.06022 0 0 -25.06022 -12527.35 18988.884)"/></svg>

<?xml version="1.0" encoding="UTF-8" standalone="no"?>
<svg
   xmlns:dc="http://purl.org/dc/elements/1.1/"
   xmlns:cc="http://creativecommons.org/ns#"
   xmlns:rdf="http://www.w3.org/1999/02/22-rdf-syntax-ns#"
   xmlns="http://www.w3.org/2000/svg"
   xmlns:sodipodi="http://sodipodi.sourceforge.net/DTD/sodipodi-0.dtd"
   xmlns:inkscape="http://www.inkscape.org/namespaces/inkscape"
   width="708" height="819" viewBox="10 30 708 819"
   sodipodi:version="0.32"
   inkscape:version="0.46"
   sodipodi:docname="Zeichnung-1.svg"
   inkscape:output_extension="org.inkscape.output.svg.inkscape">
  <metadata>
    <rdf:RDF>
      <cc:Work rdf:about="">
        <dc:format>image/svg+xml</dc:format>
        <dc:type rdf:resource="http://purl.org/dc/dcmitype/StillImage"/>
      </cc:Work>
    </rdf:RDF>
  </metadata>
  <g
     inkscape:label="Ebene 1"
     inkscape:groupmode="layer"
     id="layer1">
    <g
       id="g2508"
       inkscape:label="Ebene 1"
       transform="matrix(25.060222,0,0,25.060222,-8944.4129,-11679.61)">
      <g
         transform="matrix(1,0,0,-1,-142.97309,1223.7918)"
         id="Wappen_MG_Brunn_am_Gebirge">
        <path
           style="fill:none;stroke:#231f20;stroke-width:0.17399999;stroke-linecap:butt;stroke-linejoin:bevel;stroke-miterlimit:2.61299992"
           d="M 501.395,746.118 C 501.317,746.455 501.253,746.856 501.159,747.535 C 501.109,747.905 501.016,748.757 501.024,749.522 C 501.032,750.313 501.202,751.006 501.194,751.196 C 501.895,751.138 504.037,752.313 504.724,753.169 C 505.159,753.711 506.164,755.11 506.305,755.656 C 507.686,755.186 508.664,754.633 514.293,753.984 C 515.612,753.833 527.196,754.736 527.28,755.43 C 527.463,754.52 527.674,751.232 527.719,749.484 C 527.757,747.967 527.829,746.401 527.729,745.603 C 527.689,745.33 527.695,745.19 527.672,745.046 C 527.622,744.726 527.532,743.297 526.959,741.289 C 526.539,739.819 525.84,738.18 525.58,737.62 C 525.253,737.054 524.092,735.11 522.784,733.329 C 522.373,732.769 521.975,732.214 521.575,731.746 C 520.863,730.913 520.256,730.23 519.952,729.875 C 518.939,728.694 514.597,724.639 513.49,724.346 C 512.216,725.721 509.732,727.512 508.776,728.063 C 508.414,728.272 507.539,728.774 507.169,728.939 C 507.28,730.028 507.023,731.561 506.742,733.02 C 506.463,734.473 506.062,736.516 505.311,737.846 C 505.118,738.3 504.802,739.039 504.725,739.17 C 504.484,739.578 504.386,739.79 504.028,740.546 C 503.844,740.934 502.732,742.478 502.057,743.998 C 501.673,744.861 501.423,745.846 501.395,746.118 z"
           stroke-miterlimit="2.613"
           id="path2456" />
        <path
           style="fill:#c9252b;fill-rule:evenodd;stroke:#231f20;stroke-width:0.80500001;stroke-linecap:butt;stroke-linejoin:bevel;stroke-miterlimit:2.61299992"
           d="M 506.188,738.003 L 524.704,737.918 C 524.486,737.347 523.332,735.583 522.042,733.969 C 520.955,732.609 519.932,731.207 519.47,730.706 C 518.499,729.651 514.649,725.774 513.636,725.43 C 512.453,726.718 510.175,728.367 509.292,728.878 C 508.958,729.072 508.222,729.466 507.88,729.618 C 507.971,730.649 507.679,732.165 507.374,733.544 C 507.07,734.923 506.717,736.978 506.188,738.003 z"
           stroke-miterlimit="2.613"
           id="path2458" />
        <path
           style="fill:#c9252b;fill-rule:evenodd;stroke:#231f20;stroke-width:0.80500001;stroke-linecap:butt;stroke-linejoin:bevel;stroke-miterlimit:2.61299992"
           d="M 526.724,745.947 L 502.372,746.006 C 502.295,746.289 502.234,746.473 502.141,747.101 C 502.09,747.444 501.996,748.232 501.995,748.941 C 501.994,749.674 502.144,750.318 502.135,750.494 C 502.784,750.448 504.756,751.558 505.383,752.358 C 505.781,752.865 506.697,754.173 506.822,754.68 C 508.105,754.259 509.016,753.755 514.236,753.213 C 515.459,753.086 526.233,753.779 526.304,754.423 C 526.482,753.581 526.655,750.801 526.715,749.182 C 526.766,747.776 526.767,746.639 526.724,745.947 z"
           stroke-miterlimit="2.613"
           id="path2460" />
        <path
           style="fill:#ffffff;fill-rule:evenodd;stroke:#231f20;stroke-width:0.80500001;stroke-linecap:butt;stroke-linejoin:bevel;stroke-miterlimit:2.61299992"
           d="M 524.69,737.893 C 525.022,738.435 525.699,740.042 526.09,741.581 C 526.62,743.668 526.702,745.072 526.718,745.423 C 526.724,745.557 526.724,745.692 526.725,745.957 L 502.387,746.046 C 502.421,745.805 502.692,744.823 503.1,743.965 C 503.819,742.455 504.917,740.827 505.087,740.43 C 505.414,739.665 505.599,739.31 505.782,738.851 C 505.906,738.539 506.081,738.226 506.19,737.997 L 524.69,737.893 z"
           stroke-miterlimit="2.613"
           id="path2462" />
        <path
           style="fill:#231f20;fill-rule:evenodd;stroke:#231f20;stroke-width:0.403;stroke-linecap:butt;stroke-linejoin:miter;stroke-miterlimit:2.61299992"
           d="M 513.175,747.511 L 513.493,747.505 L 514.481,747.554 L 514.514,751.333 L 516.22,751.341 L 516.215,737.365 C 516.201,736.682 516.115,735.65 515.813,734.868 C 514.883,732.459 513.461,732.102 512.734,731.898 C 512.563,731.85 510.464,731.486 510.582,731.708 C 510.83,731.81 512.204,732.71 512.303,732.847 C 512.745,733.458 513.633,734.691 513.446,737.352 L 513.175,747.511 z"
           stroke-miterlimit="2.613"
           id="path2464" />
        <path
           style="fill:#ffffff;fill-rule:evenodd;stroke:#ffffff;stroke-width:0.17399999;stroke-linecap:butt;stroke-linejoin:miter;stroke-miterlimit:2.61299992"
           d="M 515.331,750.615 C 515.443,750.615 515.535,750.523 515.535,750.411 C 515.535,750.298 515.443,750.206 515.331,750.206 C 515.219,750.206 515.128,750.298 515.128,750.411 C 515.128,750.523 515.219,750.615 515.331,750.615 z M 515.322,748.766 C 515.435,748.766 515.526,748.674 515.526,748.562 C 515.526,748.449 515.435,748.357 515.322,748.357 C 515.21,748.357 515.119,748.449 515.119,748.562 C 515.119,748.674 515.21,748.766 515.322,748.766 z"
           stroke-miterlimit="2.613"
           id="path2466" />
      </g>
    </g>
  </g>
</svg>
